assets/Person in lotus position/Light/Flat/person_in_lotus_position_flat_light.svg

<svg width="32" height="32" viewBox="0 0 32 32" fill="none" xmlns="http://www.w3.org/2000/svg">
<path d="M22.75 21.5H16V24.5H11.8295C11.4787 24.5 11.167 24.6679 11.0598 25L10.0465 28.6812C9.84189 29.3359 10.3388 30 11.0403 30C11.3326 30 11.6152 29.8862 11.81 29.6774L13.0182 28.3966C13.213 28.1879 13.5053 28 13.7976 28H22.75C24.5449 28 26 26.5449 26 24.75C26 22.9551 24.5449 21.5 22.75 21.5Z" fill="#F1B99B"/>
<path d="M16 21.5H9.25C7.45507 21.5 6 22.9551 6 24.75C6 26.4606 7.32151 27.8625 8.99928 27.9905C8.9995 27.9937 8.99972 27.9968 8.99994 28H18.2023C18.4946 28 18.7869 28.1879 18.9817 28.3966L20.1899 29.6774C20.3848 29.8862 20.6673 30 20.9596 30C21.6611 30 22.1581 29.3359 21.9535 28.6812L20.9402 25C20.8397 24.6887 20.5594 24.5216 20.2358 24.502C20.2142 24.5007 20.1924 24.5 20.1705 24.5H16V21.5Z" fill="#F4C6AD"/>
<path d="M10 17C10 13.6863 12.6863 11 16 11C19.3137 11 22 13.6863 22 17V17.6475C22 18 22.1576 18.2197 22.25 18.5C22.5542 19.446 23.6701 20.3505 24.6832 21.1944C25.0356 21.488 25.3757 21.7712 25.6647 22.0412L26.5747 21.8918C26.8247 21.8519 27.0547 22.0113 27.0947 22.2603C27.1347 22.5094 26.9747 22.7385 26.7247 22.7783L26.5547 22.8082C26.6347 22.9078 26.6947 23.0174 26.7447 23.137C26.9847 23.2764 27.2647 23.3362 27.5447 23.3063C27.7547 23.2864 27.9547 23.4159 27.9947 23.6251C28.0247 23.8143 27.9247 23.9936 27.7547 24.0634C27.8547 24.1231 27.9347 24.2327 27.9447 24.3622C27.9747 24.5814 27.8147 24.7806 27.5947 24.8005H27.5847V24.8205C27.6147 25.0396 27.4547 25.2388 27.2347 25.2588C27.0047 25.2886 26.7747 25.2787 26.5547 25.2289C26.4947 25.3982 26.3247 25.5178 26.1347 25.4978C25.7147 25.458 25.3247 25.3086 24.9947 25.0496C21.4924 22.3422 21.0607 22.0084 20.6705 21.6316C20.6157 21.5786 20.5616 21.5248 20.5 21.4634C20 20.9653 19.5 19.9692 19.5 19.4711H18.5V18H13.5V19.4711H12.5C12.5 19.9692 12 20.9653 11.5 21.4634C11.4384 21.5247 11.3843 21.5787 11.3295 21.6316C10.9393 22.0084 10.5076 22.3422 7.00529 25.0496C6.67529 25.3086 6.28529 25.458 5.86529 25.4978C5.67529 25.5178 5.50529 25.3982 5.44529 25.2289C5.22529 25.2787 4.99529 25.2886 4.76529 25.2588C4.54529 25.2388 4.38529 25.0396 4.41529 24.8205V24.8005H4.40529C4.18529 24.7806 4.02529 24.5814 4.05529 24.3622C4.06529 24.2327 4.14529 24.1231 4.24529 24.0634C4.07529 23.9936 3.97529 23.8143 4.00529 23.6251C4.04529 23.4159 4.24529 23.2864 4.45529 23.3063C4.73529 23.3362 5.01529 23.2764 5.25529 23.137C5.30529 23.0174 5.36529 22.9078 5.44529 22.8082L5.27529 22.7783C5.02529 22.7385 4.86529 22.5094 4.90529 22.2603C4.94529 22.0113 5.17529 21.8519 5.42529 21.8918L6.33529 22.0412C6.62436 21.7712 6.96438 21.488 7.31683 21.1944C8.32994 20.3505 9.44582 19.446 9.75 18.5C9.84241 18.2197 10 18 10 17.6475V17Z" fill="#FFD7C2"/>
<path d="M20 21.5H12V12.5277C12.1934 12.3308 12.5364 12.0576 13 11.7967L16.0532 11.7967L18.9897 11.7967C19.352 12.0053 19.6905 12.2507 20 12.5277V21.5Z" fill="#FF6723"/>
<path d="M15.8477 15H16.1419C17.7181 15 19 13.7708 19 12.2594V11.796C18.0858 11.2821 17.0666 11 15.9948 11C14.9335 11 13.9142 11.2821 13.0001 11.7859V12.2695C12.9896 13.7809 14.2715 15 15.8477 15Z" fill="#F4C6AD"/>
<path d="M18.7842 9.98999C18.8822 9.76999 18.9606 9.52999 18.99 9.27999L19.039 7.97458C19.235 7.96458 19.4212 7.89458 19.5682 7.78458V8.74999C19.5682 9.28999 19.2644 9.76999 18.7842 9.98999Z" fill="#212121"/>
<path d="M12.4238 7.81C12.5904 7.92 12.7766 7.99 12.9922 8L13.051 9.28002C13.0804 9.54002 13.149 9.79002 13.2569 10.01C12.757 9.81002 12.4238 9.31002 12.4238 8.76002V7.81Z" fill="#212121"/>
<path d="M14 7.29004C14 7.84232 13.5523 8.29004 13 8.29004C12.4477 8.29004 12 7.84232 12 7.29004C12 6.73775 12.4477 6.29004 13 6.29004C13.5523 6.29004 14 6.73775 14 7.29004Z" fill="#F4C6AD"/>
<path d="M20 7.29004C20 7.84232 19.5523 8.29004 19 8.29004C18.4477 8.29004 18 7.84232 18 7.29004C18 6.73775 18.4477 6.29004 19 6.29004C19.5523 6.29004 20 6.73775 20 7.29004Z" fill="#F4C6AD"/>
<path d="M16.7488 3H15.2536C13.5874 3 12.3272 4.2858 12.5194 5.87587L12.765 9.40935C12.9359 10.6068 14.0574 11.5 15.3711 11.5H16.0012H16.6314C17.945 11.5 19.0665 10.6068 19.2374 9.40935L19.4723 5.87587C19.7073 4.34469 18.415 3 16.7488 3Z" fill="#FFD7C2"/>
<path d="M15.7976 7.16798L15.5137 8.2771C15.4535 8.50729 15.5997 8.73749 15.789 8.73749H16.2105C16.4083 8.73749 16.5459 8.50729 16.4857 8.2771L16.2019 7.16798C16.1417 6.92732 15.8578 6.92732 15.7976 7.16798Z" fill="#E5AF93"/>
<path d="M16 9.49196C15.6817 9.49196 15.3915 9.40901 15.1387 9.26385C15.0545 9.21201 14.9609 9.32606 15.017 9.40901C15.223 9.76153 15.5881 10 16 10C16.4119 10 16.777 9.76153 16.983 9.40901C17.0391 9.3157 16.9455 9.21201 16.8613 9.26385C16.6179 9.40901 16.3183 9.49196 16 9.49196Z" fill="#990838"/>
<path d="M19.8034 4.04C19.6172 3.72 19.333 3.49 19.0194 3.38C18.6764 3.26 18.3726 3.03 18.1766 2.71C17.9218 2.28 17.4611 2 16.9417 2C16.7359 2 16.5497 2.04 16.3733 2.12C16.1381 2.22 15.8735 2.22 15.6285 2.12C15.4521 2.04 15.2659 2 15.0601 2C14.5407 2 14.0898 2.28 13.835 2.69C13.639 3.01 13.3352 3.26 12.9824 3.38C12.6394 3.5 12.3552 3.74 12.169 4.09C11.9044 4.59 11.9632 5.18 12.2572 5.62C12.365 5.78 12.4238 5.97 12.4238 6.17V6.49C12.5512 6.4 12.6982 6.33 12.855 6.31V6.3V5.8C12.855 4.63 13.786 3.68 14.9327 3.68H15.7265C15.8931 3.68 16.0499 3.78 16.1087 3.94C16.3537 4.49 16.8927 4.84 17.4807 4.84H18.353C18.8234 4.86 19.2056 5.26 19.2154 5.74L19.1762 6.31C19.186 6.31 19.186 6.31 19.1958 6.31H19.2056C19.3428 6.34 19.4702 6.4 19.578 6.48V6.17C19.578 5.97 19.6368 5.78 19.7446 5.62C20.0484 5.17 20.0974 4.55 19.8034 4.04Z" fill="#212121"/>
<path d="M18.3113 5.97399C18.3701 5.89809 18.3561 5.7888 18.2802 5.73L18.2791 5.72917L18.2773 5.7278L18.2719 5.72377C18.2675 5.72054 18.2615 5.71623 18.2539 5.71102C18.2388 5.70061 18.2175 5.68658 18.1903 5.67037C18.1362 5.638 18.0583 5.59663 17.9603 5.5581C17.7643 5.48109 17.4845 5.41433 17.1517 5.45699C17.0565 5.4692 16.9892 5.5563 17.0014 5.65154C17.0136 5.74677 17.1007 5.81408 17.1959 5.80187C17.4575 5.76834 17.6777 5.82063 17.8331 5.88171C17.9108 5.91223 17.9715 5.94466 18.012 5.96884C18.0322 5.98091 18.0472 5.99083 18.0566 5.99731L18.0664 6.00425L18.068 6.00543C18.1439 6.06368 18.2526 6.04969 18.3113 5.97399Z" fill="#212121"/>
<path d="M13.8797 6.07436L13.881 6.07337L13.8917 6.06592C13.9018 6.059 13.9179 6.04845 13.9395 6.03566C13.9828 6.01002 14.0477 5.97568 14.1307 5.94337C14.2968 5.87871 14.5323 5.8233 14.812 5.85883C14.9073 5.87092 14.9943 5.80351 15.0064 5.70826C15.0185 5.61301 14.9511 5.52599 14.8558 5.5139C14.5056 5.46942 14.211 5.53901 14.0046 5.61935C13.9014 5.65955 13.8194 5.70271 13.7624 5.73644C13.7339 5.75334 13.7115 5.76794 13.6956 5.77876C13.6877 5.78417 13.6814 5.78864 13.6768 5.79198L13.6712 5.79612L13.6693 5.79752L13.6683 5.79826C13.5922 5.85671 13.5776 5.96604 13.636 6.0422C13.6944 6.11834 13.8035 6.13272 13.8797 6.07436Z" fill="#212121"/>
<path d="M14.1208 6.91093C14.0716 6.84427 13.9777 6.8301 13.911 6.87928C13.8444 6.92847 13.8302 7.02238 13.8794 7.08904C14.0467 7.31584 14.3277 7.44999 14.6251 7.44999C14.9225 7.44999 15.2035 7.31584 15.3708 7.08904C15.42 7.02238 15.4058 6.92847 15.3392 6.87928C15.2725 6.8301 15.1786 6.84427 15.1294 6.91093C15.0233 7.05472 14.8355 7.14999 14.6251 7.14999C14.4147 7.14999 14.2269 7.05472 14.1208 6.91093Z" fill="#212121"/>
<path d="M16.8708 6.91093C16.8216 6.84427 16.7277 6.8301 16.661 6.87928C16.5944 6.92847 16.5802 7.02238 16.6294 7.08904C16.7967 7.31584 17.0777 7.44999 17.3751 7.44999C17.6725 7.44999 17.9535 7.31584 18.1208 7.08904C18.17 7.02238 18.1558 6.92847 18.0892 6.87928C18.0225 6.8301 17.9286 6.84427 17.8794 6.91093C17.7733 7.05472 17.5855 7.14999 17.3751 7.14999C17.1647 7.14999 16.9769 7.05472 16.8708 6.91093Z" fill="#212121"/>
<path d="M6.41751 22.9507C6.44476 22.9295 6.48403 22.9344 6.50522 22.9616C6.5264 22.9889 6.52149 23.0282 6.49424 23.0493L5.53849 23.7925C5.31984 23.9619 5.06032 24.0623 4.7865 24.0852C4.69328 24.0931 4.59838 24.0919 4.50286 24.0814L4.50134 24.0813C4.50062 24.0812 4.49991 24.0811 4.4992 24.081C4.42597 24.0738 4.35968 24.0895 4.28981 24.1236C4.20319 24.1746 4.14167 24.2642 4.1319 24.3702L4.13158 24.373C4.10883 24.5374 4.21724 24.6896 4.37672 24.7281C4.41025 24.623 4.48159 24.5363 4.57342 24.4813C4.66131 24.4269 4.76793 24.4006 4.87551 24.4107C5.2196 24.4484 5.55433 24.3543 5.82135 24.1474L7.0513 23.191C7.07855 23.1698 7.11782 23.1747 7.13901 23.202C7.15997 23.229 7.15538 23.2677 7.12889 23.289C7.12585 23.2929 7.1223 23.2964 7.11827 23.2995L5.88827 24.256C5.59529 24.483 5.22899 24.586 4.85309 24.5449L4.85157 24.5447C4.77304 24.5341 4.6978 24.5519 4.63587 24.5895C4.55962 24.6383 4.50482 24.7154 4.49152 24.8072L4.48376 24.8608H4.47938C4.46898 25.0317 4.59848 25.1836 4.77548 25.1994L4.77787 25.1997C4.97836 25.2255 5.17856 25.2203 5.37145 25.1844C5.37601 25.2088 5.38355 25.2311 5.38955 25.2488L5.39069 25.2521L5.39867 25.2494C5.39144 25.2278 5.3858 25.2055 5.38192 25.1824L5.37145 25.1844C5.36917 25.1722 5.36764 25.1594 5.36743 25.1464L5.36766 25.1491L5.3775 25.1482L5.37709 25.1434H5.3674L5.36743 25.1464C5.34588 24.897 5.52983 24.6704 5.78368 24.6473C6.04193 24.6189 6.27118 24.5247 6.47236 24.3736C6.47978 24.368 6.48803 24.3643 6.49653 24.3625L7.71146 23.4178C7.73871 23.3966 7.77797 23.4015 7.79916 23.4287C7.82035 23.456 7.81544 23.4953 7.78819 23.5164L6.55819 24.4729L6.55736 24.4735C6.33869 24.6378 6.08815 24.7408 5.80663 24.7716L5.8054 24.7718C5.62049 24.7883 5.48517 24.9545 5.50206 25.1376C5.51869 25.318 5.6862 25.4529 5.87412 25.4361C5.95019 25.4289 6.02523 25.4178 6.09908 25.4028C6.13291 25.396 6.16589 25.4179 6.17274 25.4517C6.17959 25.4855 6.15771 25.5185 6.12388 25.5254C6.04568 25.5412 5.96621 25.553 5.88567 25.5606C5.68824 25.5782 5.5026 25.4713 5.4203 25.3023C5.20657 25.3451 4.98468 25.3522 4.76309 25.3238C4.51987 25.3014 4.33893 25.0911 4.35472 24.8513C4.13163 24.8013 3.97615 24.5898 4.00756 24.3573C4.01824 24.2453 4.06991 24.1473 4.14626 24.0758C4.01562 23.9828 3.93896 23.8285 3.95795 23.6579C3.98159 23.4054 4.21375 23.2235 4.46766 23.2572C4.8115 23.2946 5.14501 23.2004 5.41185 22.9937C5.43914 22.9726 5.47839 22.9775 5.49953 23.0048C5.52067 23.0321 5.51569 23.0714 5.4884 23.0925C5.19543 23.3195 4.82922 23.4225 4.45332 23.3813L4.4518 23.3811C4.26623 23.3562 4.09903 23.4893 4.08236 23.6701L4.08223 23.6713C4.06662 23.8098 4.13792 23.9348 4.2587 23.9987C4.33498 23.9617 4.42266 23.9455 4.51324 23.9568C4.51447 23.9569 4.5157 23.957 4.51693 23.9572C4.60431 23.9667 4.69103 23.9678 4.77615 23.9607C5.02608 23.9397 5.26229 23.8481 5.46139 23.6938C5.46286 23.6927 5.46437 23.6916 5.46591 23.6906L6.41751 22.9507Z" fill="#F1B99B"/>
<path fill-rule="evenodd" clip-rule="evenodd" d="M25.5978 22.9507C25.5705 22.9295 25.5312 22.9344 25.5101 22.9616C25.4889 22.9889 25.4938 23.0282 25.521 23.0493L26.4768 23.7925C26.6897 23.9575 26.9414 24.0571 27.2074 24.0833C27.3075 24.0932 27.4096 24.0927 27.5124 24.0815L27.5139 24.0813L27.5161 24.081C27.5893 24.0738 27.6556 24.0895 27.7255 24.1236C27.8121 24.1746 27.8736 24.2642 27.8834 24.3702L27.8837 24.373C27.9064 24.5375 27.798 24.6896 27.6385 24.7281C27.605 24.6231 27.5337 24.5363 27.4419 24.4813C27.354 24.4269 27.2474 24.4006 27.1398 24.4107C26.7957 24.4484 26.4609 24.3543 26.1939 24.1474L24.964 23.191C24.9367 23.1698 24.8975 23.1747 24.8763 23.202C24.8553 23.229 24.8599 23.2677 24.8864 23.289C24.8894 23.2929 24.893 23.2964 24.897 23.2995L26.127 24.256C26.42 24.483 26.7863 24.586 27.1622 24.5449L27.1637 24.5447C27.2422 24.5341 27.3175 24.5519 27.3794 24.5895C27.4557 24.6383 27.5104 24.7154 27.5238 24.8072L27.5315 24.8608H27.5359C27.5463 25.0317 27.4168 25.1836 27.2398 25.1994L27.2374 25.1997C27.0369 25.2255 26.8367 25.2203 26.6438 25.1844C26.6461 25.1722 26.6476 25.1594 26.6478 25.1464C26.6694 24.897 26.4854 24.6704 26.2316 24.6473C25.9733 24.6189 25.7441 24.5247 25.5429 24.3736C25.5355 24.368 25.5272 24.3643 25.5187 24.3625L24.3038 23.4178C24.2766 23.3966 24.2373 23.4015 24.2161 23.4287C24.1949 23.456 24.1998 23.4953 24.2271 23.5164L25.4571 24.4729L25.4579 24.4735C25.6766 24.6378 25.9271 24.7408 26.2086 24.7716L26.2099 24.7718C26.3948 24.7883 26.5301 24.9545 26.5132 25.1376C26.4966 25.318 26.3291 25.4529 26.1412 25.4361C26.0651 25.4289 25.99 25.4178 25.9162 25.4028C25.8824 25.396 25.8494 25.4179 25.8425 25.4517C25.8357 25.4855 25.8576 25.5185 25.8914 25.5254C25.9696 25.5412 26.0491 25.553 26.1296 25.5606C26.327 25.5782 26.5127 25.4713 26.595 25.3023C26.8087 25.3451 27.0306 25.3522 27.2522 25.3238C27.4954 25.3014 27.6763 25.0911 27.6605 24.8513C27.8836 24.8013 28.0391 24.5898 28.0077 24.3573C27.997 24.2453 27.9454 24.1473 27.869 24.0758C27.9996 23.9828 28.0763 23.8285 28.0573 23.6579C28.0337 23.4054 27.8015 23.2235 27.5476 23.2572C27.2038 23.2946 26.8703 23.2004 26.6034 22.9937C26.5761 22.9726 26.5369 22.9775 26.5157 23.0048C26.4946 23.0321 26.4996 23.0714 26.5269 23.0925C26.8198 23.3195 27.1861 23.4225 27.562 23.3813L27.5635 23.3811C27.749 23.3562 27.9162 23.4893 27.9329 23.6701L27.933 23.6713C27.9486 23.8098 27.8773 23.9348 27.7566 23.9987C27.6803 23.9617 27.5926 23.9455 27.502 23.9568L27.4983 23.9572C27.411 23.9667 27.3242 23.9678 27.2391 23.9607C26.9892 23.9397 26.753 23.8481 26.5539 23.6938L26.5494 23.6906L25.5978 22.9507ZM26.6478 25.1464L26.6476 25.1491L26.6378 25.1482L26.6382 25.1434H26.6479L26.6478 25.1464ZM26.6438 25.1844C26.6393 25.2088 26.6317 25.2311 26.6257 25.2488L26.6246 25.2521L26.6166 25.2494C26.6238 25.2278 26.6295 25.2055 26.6333 25.1824L26.6438 25.1844Z" fill="#F1B99B"/>
<path d="M20 21.5H12L13.63 24.5H18.3138L20 21.5Z" fill="#9B9B9B"/>
</svg>

<svg xmlns="http://www.w3.org/2000/svg" width="32" height="32" fill="none"><path fill="#F1B99B" d="M22.75 21.5H16v3h-4.17c-.351 0-.663.168-.77.5l-1.014 3.681c-.204.655.293 1.319.994 1.319.293 0 .575-.114.77-.323l1.208-1.28c.195-.21.487-.397.78-.397h8.952a3.25 3.25 0 0 0 0-6.5Z"/><path fill="#F4C6AD" d="M16 21.5H9.25A3.25 3.25 0 0 0 9 27.99V28h9.202c.293 0 .585.188.78.397l1.208 1.28c.195.21.477.323.77.323.701 0 1.198-.664.993-1.319L20.94 25c-.1-.311-.38-.478-.704-.498a1.087 1.087 0 0 0-.066-.002H16v-3Z"/><path fill="#FFD7C2" d="M10 17a6 6 0 0 1 12 0v.648c0 .352.158.572.25.852.304.946 1.42 1.85 2.433 2.694.353.294.693.577.982.847l.91-.15c.25-.04.48.12.52.37.04.248-.12.477-.37.517l-.17.03c.08.1.14.21.19.329.24.14.52.2.8.17.21-.02.41.109.45.318.03.19-.07.369-.24.438.1.06.18.17.19.3.03.218-.13.418-.35.438h-.01v.02c.03.219-.13.418-.35.438-.23.03-.46.02-.68-.03a.404.404 0 0 1-.42.269c-.42-.04-.81-.19-1.14-.448-3.503-2.708-3.934-3.042-4.325-3.418a15.859 15.859 0 0 1-.17-.169c-.5-.498-1-1.494-1-1.992h-1V18h-5v1.471h-1c0 .498-.5 1.494-1 1.992l-.17.169c-.39.376-.822.71-4.325 3.418-.33.259-.72.408-1.14.448-.19.02-.36-.1-.42-.27-.22.05-.45.06-.68.03a.388.388 0 0 1-.35-.438v-.02h-.01a.388.388 0 0 1-.35-.438.39.39 0 0 1 .19-.299.401.401 0 0 1-.24-.438c.04-.21.24-.339.45-.319.28.03.56-.03.8-.169.05-.12.11-.23.19-.329l-.17-.03a.445.445 0 0 1-.37-.518.446.446 0 0 1 .52-.368l.91.15c.29-.27.63-.554.982-.848 1.013-.843 2.129-1.748 2.433-2.694.092-.28.25-.5.25-.852V17Z"/><path fill="#FF6723" d="M20 21.5h-8v-8.972c.193-.197.536-.47 1-.731h5.99c.362.208.7.454 1.01.73V21.5Z"/><path fill="#F4C6AD" d="M15.848 15h.294C17.718 15 19 13.77 19 12.26v-.464A6.098 6.098 0 0 0 15.995 11c-1.061 0-2.08.282-2.995.786v.484c-.01 1.51 1.271 2.73 2.848 2.73Z"/><path fill="#212121" d="M18.784 9.99c.098-.22.177-.46.206-.71l.049-1.305a.973.973 0 0 0 .53-.19v.965c0 .54-.305 1.02-.785 1.24ZM12.424 7.81c.166.11.353.18.568.19l.059 1.28c.03.26.098.51.206.73-.5-.2-.833-.7-.833-1.25v-.95Z"/><path fill="#F4C6AD" d="M14 7.29a1 1 0 1 1-2 0 1 1 0 0 1 2 0ZM20 7.29a1 1 0 1 1-2 0 1 1 0 0 1 2 0Z"/><path fill="#FFD7C2" d="M16.749 3h-1.495c-1.667 0-2.927 1.286-2.735 2.876l.246 3.533c.17 1.198 1.292 2.091 2.606 2.091h1.26c1.314 0 2.436-.893 2.606-2.09l.235-3.534C19.707 4.345 18.415 3 16.75 3Z"/><path fill="#E5AF93" d="m15.798 7.168-.284 1.11c-.06.23.086.46.275.46h.421c.198 0 .336-.23.276-.46l-.284-1.11c-.06-.24-.344-.24-.404 0Z"/><path fill="#990838" d="M16 9.492c-.318 0-.608-.083-.861-.228-.084-.052-.178.062-.122.145.206.353.571.591.983.591.412 0 .777-.238.983-.591.056-.093-.038-.197-.122-.145a1.688 1.688 0 0 1-.861.228Z"/><path fill="#212121" d="M19.803 4.04c-.186-.32-.47-.55-.784-.66a1.604 1.604 0 0 1-.842-.67A1.435 1.435 0 0 0 16.942 2c-.206 0-.392.04-.569.12-.235.1-.5.1-.745 0A1.35 1.35 0 0 0 15.06 2c-.52 0-.97.28-1.225.69-.196.32-.5.57-.853.69-.343.12-.627.36-.813.71a1.5 1.5 0 0 0 .088 1.53.98.98 0 0 1 .167.55v.32a.973.973 0 0 1 .431-.18V5.8c0-1.17.931-2.12 2.078-2.12h.793c.167 0 .324.1.383.26.245.55.784.9 1.372.9h.872c.47.02.853.42.862.9l-.039.57h.03c.137.03.264.09.372.17v-.31c0-.2.059-.39.167-.55.303-.45.352-1.07.058-1.58Z"/><path fill="#212121" d="M18.311 5.974a.174.174 0 0 0-.03-.244h-.002l-.002-.002-.005-.004a.682.682 0 0 0-.082-.054 1.637 1.637 0 0 0-1.039-.213.174.174 0 0 0 .045.345 1.289 1.289 0 0 1 .86.195l.01.007.002.001a.174.174 0 0 0 .243-.031ZM13.88 6.074h.001l.01-.008a1.313 1.313 0 0 1 .239-.123 1.39 1.39 0 0 1 .682-.084.174.174 0 1 0 .044-.345 1.738 1.738 0 0 0-1.18.278l-.005.004-.002.002a.174.174 0 0 0 .21.276ZM14.12 6.91a.15.15 0 0 0-.24.179c.167.227.448.361.745.361a.926.926 0 0 0 .746-.361.15.15 0 0 0-.242-.178.626.626 0 0 1-.504.239.626.626 0 0 1-.504-.24ZM16.87 6.91a.15.15 0 0 0-.24.179c.167.227.448.361.745.361a.926.926 0 0 0 .746-.361.15.15 0 0 0-.242-.178.626.626 0 0 1-.504.239.626.626 0 0 1-.504-.24Z"/><path fill="#F1B99B" d="M6.418 22.95a.063.063 0 0 1 .076.1l-.956.742a1.416 1.416 0 0 1-1.035.29H4.5L4.5 24.08a.378.378 0 0 0-.21.043.32.32 0 0 0-.157.246v.003a.322.322 0 0 0 .245.355.447.447 0 0 1 .196-.247.49.49 0 0 1 .303-.07c.344.037.678-.057.945-.264l1.23-.956a.062.062 0 0 1 .078.098.059.059 0 0 1-.01.01l-1.23.957c-.294.227-.66.33-1.036.289h-.001a.33.33 0 0 0-.216.044.313.313 0 0 0-.144.218l-.008.054h-.005c-.01.17.12.323.296.338h.003c.2.026.4.021.593-.015a.465.465 0 0 0 .019.065v.003l.009-.003a.44.44 0 0 1-.017-.067l-.01.002a.228.228 0 0 1-.005-.038v.003h.01v-.006h-.01v.003a.462.462 0 0 1 .417-.499 1.38 1.38 0 0 0 .688-.273.061.061 0 0 1 .025-.011l1.214-.945a.063.063 0 1 1 .077.098l-1.23.957c-.22.165-.47.268-.751.299h-.002a.337.337 0 0 0-.303.366.34.34 0 0 0 .372.298c.076-.007.151-.018.225-.033a.063.063 0 0 1 .025.122 2.288 2.288 0 0 1-.238.036.472.472 0 0 1-.466-.259c-.213.043-.435.05-.657.022a.448.448 0 0 1-.408-.473.447.447 0 0 1-.347-.494.442.442 0 0 1 .138-.281.448.448 0 0 1-.188-.418.45.45 0 0 1 .51-.4 1.3 1.3 0 0 0 .944-.264.063.063 0 0 1 .076.099c-.293.227-.659.33-1.035.288h-.001a.325.325 0 0 0-.37.29.326.326 0 0 0 .177.328.453.453 0 0 1 .258-.042 1.29 1.29 0 0 0 .949-.267l.952-.74Z"/><path fill="#F1B99B" fill-rule="evenodd" d="M25.598 22.95a.063.063 0 0 0-.077.1l.956.742a1.415 1.415 0 0 0 1.035.29h.002l.002-.001a.378.378 0 0 1 .21.043.32.32 0 0 1 .157.246v.003a.322.322 0 0 1-.244.355.447.447 0 0 0-.197-.247.49.49 0 0 0-.302-.07 1.302 1.302 0 0 1-.946-.264l-1.23-.956a.062.062 0 0 0-.078.098.059.059 0 0 0 .011.01l1.23.957c.293.227.66.33 1.035.289h.002a.33.33 0 0 1 .215.044.313.313 0 0 1 .145.218l.008.054h.004c.01.17-.12.323-.296.338h-.003c-.2.026-.4.021-.593-.015a.462.462 0 0 0-.412-.537 1.38 1.38 0 0 1-.69-.273.061.061 0 0 0-.023-.011l-1.215-.945a.063.063 0 1 0-.077.098l1.23.957c.22.165.47.268.752.299.186.016.321.183.304.366a.34.34 0 0 1-.372.298 2.143 2.143 0 0 1-.225-.033.063.063 0 0 0-.025.122c.079.016.158.028.239.036a.472.472 0 0 0 .465-.259c.214.043.436.05.657.022a.448.448 0 0 0 .409-.473.447.447 0 0 0 .347-.494.442.442 0 0 0-.139-.281.448.448 0 0 0 .188-.418.45.45 0 0 0-.51-.4 1.3 1.3 0 0 1-.944-.264.063.063 0 1 0-.076.099c.293.227.66.33 1.035.288h.002a.325.325 0 0 1 .369.29.326.326 0 0 1-.176.328.453.453 0 0 0-.255-.042h-.004a1.29 1.29 0 0 1-.944-.263l-.005-.003-.951-.74Zm1.05 2.196v.003h-.01v-.006h.01v.003Zm-.004.038c-.005.025-.012.047-.018.065l-.001.003-.008-.003a.435.435 0 0 0 .016-.067l.01.002Z" clip-rule="evenodd"/><path fill="#9B9B9B" d="M20 21.5h-8l1.63 3h4.684l1.686-3Z"/></svg>
